src/images/twitter.svg

<svg fill="#fff" height="30" viewBox="3 3 26 26" width="32" xmlns="http://www.w3.org/2000/svg"><path d="m27.3401734 6.35361475c-.9512396.55602319-2.0064836.96004004-3.1281304 1.17764911-.8968374-.9424393-2.1768908-1.53126386-3.5937499-1.53126386-2.7185134 0-4.9234053 2.17049052-4.9234053 4.8474022 0 .3800158.0440018.7488312.1264052 1.104046-4.0921706-.2024084-7.72032196-2.13208891-10.14922326-5.0642112-.42321765.71522983-.66722783 1.54806457-.66722783 2.43690164 0 1.68087006.87123633 3.16493196 2.19129139 4.03376826-.80643363-.0256011-1.56646533-.2432102-2.23049303-.6056253v.0608025c0 2.348098 1.69767081 4.3073797 3.95056477 4.7537983-.41361725.1104046-.84803537.1696071-1.29845416.1696071-.31681321 0-.62482606-.0304013-.92643864-.0872037.6280262 1.9248803 2.44570201 3.3273388 4.60019186 3.3665405-1.6856703 1.3000542-3.80815882 2.0752865-6.11625508 2.0752865-.39841662 0-.7888329-.023201-1.17524902-.0680028 2.18089096 1.3752573 4.76979893 2.1768908 7.5499149 2.1768908 9.0579778 0 14.0101843-7.385108 14.0101843-13.7909752 0-.2096088-.0032001-.4200175-.0128005-.6272262.96084-.6832285 1.7968749-1.53686407 2.4561024-2.50970464-.8824368.38641612-1.8312764.64562693-2.828118.76323183 1.0168425-.59922499 1.796075-1.5488646 2.1648903-2.68171184z" fill-rule="evenodd"/></svg>

<?xml version="1.0" encoding="UTF-8" standalone="no"?>
<svg width="32px" height="30px" fill="#fff" viewBox="3 3 26 26" version="1.1" xmlns="http://www.w3.org/2000/svg" xmlns:xlink="http://www.w3.org/1999/xlink">
  <g id="Page-1" stroke-width="1" fill-rule="evenodd">
    <g id="twitter" >
      <path d="M27.3401734,6.35361475 C26.3889338,6.90963794 25.3336898,7.31365479 24.212043,7.53126386 C23.3152056,6.58882456 22.0351522,6 20.6182931,6 C17.8997797,6 15.6948878,8.17049052 15.6948878,10.8474022 C15.6948878,11.227418 15.7388896,11.5962334 15.821293,11.9514482 C11.7291224,11.7490398 8.10097104,9.81935929 5.67206974,6.887237 C5.24885209,7.60246683 5.00484191,8.43530157 5.00484191,9.32413864 C5.00484191,11.0050087 5.87607824,12.4890706 7.1961333,13.3579069 C6.38969967,13.3323058 5.62966797,13.1146967 4.96564027,12.7522816 L4.96564027,12.8130841 C4.96564027,15.1611821 6.66331108,17.1204638 8.91620504,17.5668824 C8.50258779,17.677287 8.06816967,17.7364895 7.61775088,17.7364895 C7.30093767,17.7364895 6.99292482,17.7060882 6.69131224,17.6492858 C7.31933844,19.5741661 9.13701425,20.9766246 11.2915041,21.0158263 C9.6058338,22.3158805 7.48334528,23.0911128 5.17524902,23.0911128 C4.7768324,23.0911128 4.38641612,23.0679118 4,23.02311 C6.18089096,24.3983673 8.76979893,25.2000008 11.5499149,25.2000008 C20.6078927,25.2000008 25.5600992,17.8148928 25.5600992,11.4090256 C25.5600992,11.1994168 25.5568991,10.9890081 25.5472987,10.7817994 C26.5081387,10.0985709 27.3441736,9.24493533 28.0034011,8.27209476 C27.1209643,8.65851088 26.1721247,8.91772169 25.1752831,9.03532659 C26.1921256,8.4361016 26.9713581,7.48646199 27.3401734,6.35361475 L27.3401734,6.35361475 Z" id="Shape"></path>
    </g>
  </g>
</svg>
